X:39
T:Fall of Foyers, The
T:Eas-na-Sm\`uid
R:Slow Air
S:Simon Fraser Collection
N:No.193
O:Scottish
M:C
L:1/8
Q:1/4=80
K:C
C/>D/|[CE][CE] [C3/2E3/2]c/ (A/G/)F/E/ G/(F/E/D/)|[CE][CE] c>B A2 AC/D/|
EE c>d e/>c/(d/B/) c/G/E/C/|(A/G/)F/E/ c>E EDD:|
a|g<e a>e gee(c'/a/)|g<e c'>b a2 ~a(b/c'/)|
g<e a>e g<e e>d|c>A (A/G/)F/E/ EDDa|
g<e a>e geec'/>a/|ge c'/>b/c'/d'/ e'd'd'(c'/d'/)|
e'c'/e'/ d'b/d'/ c'g/c'/ (a/g/)f/e/|
f/e/d/c/ B/A/G/F/ EDD||

